img/spoon.svg

<svg fill="none" height="32" viewBox="0 0 32 32" width="32" xmlns="http://www.w3.org/2000/svg"><path d="m15.4514 14.106c-.7826-.95-1.1766-2.116-1.1766-3.2819 0-4.32382 5.1811-8.64222 10.3621-8.64222 2.8604 0 5.1811 2.32114 5.1811 5.18208 0 5.18204-4.3175 10.36414-8.6459 10.36414-1.1657 0-2.3315-.3941-3.2813-1.1768l-12.75838 12.7609c-.67462.6747-1.7702.6747-2.44482 0-.67461-.6748-.67461-1.7706 0-2.4453z" fill="#fd9222"/></svg>

<svg width="32" height="32" viewBox="0 0 32 32" fill="none" xmlns="http://www.w3.org/2000/svg">
<path d="M15.4514 14.106C14.6688 13.156 14.2748 11.99 14.2748 10.8241C14.2748 6.50028 19.4559 2.18188 24.6369 2.18188C27.4973 2.18188 29.818 4.50302 29.818 7.36396C29.818 12.546 25.5005 17.7281 21.1721 17.7281C20.0064 17.7281 18.8406 17.334 17.8908 16.5513L5.13242 29.3122C4.4578 29.9869 3.36222 29.9869 2.6876 29.3122C2.01299 28.6374 2.01299 27.5416 2.6876 26.8669L15.4514 14.106Z" fill="#FD9222"/>
</svg>
